**kern	**silbe	**harmony	**phrase	**leadinstrument	**rhyme	**timestamp	**harte
*ICvox	*	*M4/4	*	*	*	*	*M4/4
*VRlead	*	*	*	*	*	*	*
*Hstimme	*	*	*	*	*	*	*
*E:	*	*E:	*	*	*	*	*E:
*M4/4	*	*	*	*	*	*	*
*clefF4	*	*	*	*	*	*	*
r;	.	1r;	.	r	.	0	N.C.
=1	=1	=1	=1	=1	=1	=1	=1
1r	.	1N	newline	r	.	0.378	N.C.
=2	=2	=2	=2	=2	=2	=2	=2
1r	.	1N	.	r	.	2.005	N.C.
=3	=3	=3	=3	=3	=3	=3	=3
1r	.	1N	.	r	.	3.633	N.C.
=4	=4	=4	=4	=4	=4	=4	=4
4r	.	1N	.	r	.	5.26	N.C.
8c#	I	.	.	.	.	.	.
4e	got	.	.	.	.	.	.
8c#	my	.	.	.	.	.	.
4e	mind	.	.	.	.	.	.
=5	=5	=5	=5	=5	=5	=5	=5
*>Letter>A	*>Letter>A	*>Letter>A	*>Letter>A	*>Letter>A	*>Letter>A	*>Letter>A	*>Letter>A
*>Label>Chorus	*>Label>Chorus	*>Label>Chorus	*>Label>Chorus	*>Label>Chorus	*>Label>Chorus	*>Label>Chorus	*>Label>Chorus
2e	set	2C#m	newline	voice	.	6.888	C#:min
8f#	on	2G#M	.	voice	.	7.687	G#:maj
4e	_	.	.	.	.	.	.
8e	you	.	.	.	.	.	.
=6	=6	=6	=6	=6	=6	=6	=6
4r	.	1C#m	.	voice	.	8.487	C#:min
8E	I	.	.	.	.	.	.
4E	got	.	.	.	.	.	.
8E	my	.	.	.	.	.	.
4F#	mind	.	.	.	.	.	.
=7	=7	=7	=7	=7	=7	=7	=7
2G#	set	2EM	.	voice	.	10.086	E:maj
4.F#	on	2BM	.	voice	.	10.886	B:maj
8E	you	.	.	.	.	.	.
=8	=8	=8	=8	=8	=8	=8	=8
4r	.	1EM	.	voice	.	11.686	E:maj
8c#	I	.	.	.	.	.	.
4e	got	.	.	.	.	.	.
8c#	my	.	.	.	.	.	.
4e	mind	.	.	.	.	.	.
=9	=9	=9	=9	=9	=9	=9	=9
4.e	set	2C#m	newline	voice	.	13.285	C#:min
8g	on	.	.	.	.	.	.
8f#	_	2G#M	.	voice	.	14.089	G#:maj
4e	_	.	.	.	.	.	.
8e	you	.	.	.	.	.	.
=10	=10	=10	=10	=10	=10	=10	=10
4r	.	1C#m	.	voice	.	14.892	C#:min
8r	.	.	.	.	.	.	.
4E	Got	.	.	.	.	.	.
8E	my	.	.	.	.	.	.
4F#	mind	.	.	.	.	.	.
=11	=11	=11	=11	=11	=11	=11	=11
4.G#	set	2EM	.	voice	.	16.5	E:maj
8F#	_	.	.	.	.	.	.
4.F#	on	2BM	.	voice	.	17.303	B:maj
8E	you	.	.	.	.	.	.
=12	=12	=12	=12	=12	=12	=12	=12
8r	.	1EM	.	voice	.	18.107	E:maj
8c#	But	.	.	.	.	.	.
8B	it's	.	.	.	.	.	.
8c#	gon-	.	.	.	.	.	.
8B	-na	.	.	.	.	.	.
8c#	take	.	.	.	.	.	.
8B	uh	.	.	.	.	.	.
8c#	mo-	.	.	.	.	.	.
=13	=13	=13	=13	=13	=13	=13	=13
*>Letter>B	*>Letter>B	*>Letter>B	*>Letter>B	*>Letter>B	*>Letter>B	*>Letter>B	*>Letter>B
*>Label>Verse	*>Label>Verse	*>Label>Verse	*>Label>Verse	*>Label>Verse	*>Label>Verse	*>Label>Verse	*>Label>Verse
4e	-ney	2EM	newline	voice	.	19.714	E:maj
4r	.	.	.	.	.	.	.
2r	.	2AM	.	voice	.	20.519	A:maj
=14	=14	=14	=14	=14	=14	=14	=14
4r	.	1BM	.	voice	.	21.324	B:maj
8r	.	.	.	.	.	.	.
8B	A	.	.	.	.	.	.
4g#	whole	.	.	.	.	.	.
8f#	lot	.	.	.	.	.	.
8f#	of	.	.	.	.	.	.
=15	=15	=15	=15	=15	=15	=15	=15
8e	spend-	2EM	.	voice	(A	22.935	E:maj
4e	-ing	.	.	.	a)	.	.
8c#	mon-	.	.	.	.	.	.
8B	-ey	2AM	.	voice	.	23.74	A:maj
8c#	_	.	.	.	.	.	.
8B	_	.	.	.	.	.	.
8r	.	.	.	.	.	.	.
=16	=16	=16	=16	=16	=16	=16	=16
4r	.	1BM	.	voice	.	24.545	B:maj
8r	.	.	.	.	.	.	.
8B	It's	.	.	.	.	.	.
8c#	gon-	.	.	.	.	.	.
8B	-na	.	.	.	.	.	.
8B	take	.	.	.	.	.	.
8r	.	.	.	.	.	.	.
=17	=17	=17	=17	=17	=17	=17	=17
12G#	plen-	2EM	newline	voice	(A	26.155	E:maj
12E	-ty	.	.	.	a)	.	.
12E	a	.	.	.	.	.	.
8E	mon-	.	.	.	.	.	.
8E	-ey	.	.	.	.	.	.
2r	.	2AM	.	voice	.	26.966	A:maj
=18	=18	=18	=18	=18	=18	=18	=18
4.r	.	1BM	.	voice	.	27.776	B:maj
8B	to	.	.	.	.	.	.
8A	do	.	.	.	.	.	.
4B	it	.	.	.	.	.	.
[8G#	right	.	.	.	.	.	.
=19	=19	=19	=19	=19	=19	=19	=19
8G#]	_	2EM	.	voice	.	29.396	E:maj
4E	child	.	.	.	.	.	.
8r	.	.	.	.	.	.	.
2r	.	2AM	.	voice	.	30.206	A:maj
=20	=20	=20	=20	=20	=20	=20	=20
4r	.	1BM	.	voice	.	31.017	B:maj
8r	.	.	.	.	.	.	.
8B	It's	.	.	.	.	.	.
8B	gon-	.	.	.	.	.	.
8B	-na	.	.	.	.	.	.
4c#	take	.	.	.	.	.	.
=21	=21	=21	=21	=21	=21	=21	=21
[2e	time	2EM	newline	voice	.	32.637	E:maj
8e]	_	2AM	.	voice	.	33.437	A:maj
8f#	_	.	.	.	.	.	.
4r	.	.	.	.	.	.	.
=22	=22	=22	=22	=22	=22	=22	=22
2r	.	1BM	.	voice	.	34.237	B:maj
4g#	whole	.	.	.	.	.	.
8f#	lot	.	.	.	.	.	.
8f#	of	.	.	.	.	.	.
=23	=23	=23	=23	=23	=23	=23	=23
8e	pre-	2EM	.	voice	(B	35.837	E:maj
4e	-cious	.	.	.	b)	.	.
8c#	time	.	.	.	.	.	.
8B	_	2AM	.	voice	.	36.637	A:maj
8c#	_	.	.	.	.	.	.
8B	_	.	.	.	.	.	.
8r	.	.	.	.	.	.	.
=24	=24	=24	=24	=24	=24	=24	=24
4r	.	1BM	.	voice	.	37.437	B:maj
8r	.	.	.	.	.	.	.
8B	It's	.	.	.	.	.	.
8c#	gon-	.	.	.	.	.	.
8B	-na	.	.	.	.	.	.
8B	take	.	.	.	.	.	.
8r	.	.	.	.	.	.	.
=25	=25	=25	=25	=25	=25	=25	=25
6G#	pa-	2EM	newline	voice	(B	39.036	E:maj
6E	-tience	.	.	.	b)	.	.
6E	and	.	.	.	.	.	.
4E	time	2AM	.	voice	.	39.84	A:maj
4r	.	.	.	.	.	.	.
=26	=26	=26	=26	=26	=26	=26	=26
4r	.	1BM	.	voice	.	40.643	B:maj
8B	Mmm	.	.	.	.	.	.
4.A	_	.	.	.	.	.	.
8r	.	.	.	.	.	.	.
8B	To	.	.	.	.	.	.
=27	=27	=27	=27	=27	=27	=27	=27
8G#	do	2EM	newline	voice	.	42.25	E:maj
8G#	it	.	.	.	.	.	.
8r	.	.	.	.	.	.	.
8B	To	.	.	.	.	.	.
8A	do	2AM	.	voice	.	43.055	A:maj
8A	it	.	.	.	.	.	.
8r	.	.	.	.	.	.	.
8B	To	.	.	.	.	.	.
=28	=28	=28	=28	=28	=28	=28	=28
8G#	do	2EM	.	voice	.	43.861	E:maj
8G#	it	.	.	.	.	.	.
8r	.	.	.	.	.	.	.
8B	To	.	.	.	.	.	.
8A	do	2AM	.	voice	.	44.666	A:maj
8A	it	.	.	.	.	.	.
8r	.	.	.	.	.	.	.
8B	To	.	.	.	.	.	.
=29	=29	=29	=29	=29	=29	=29	=29
8G#	do	2EM	.	voice	.	45.472	E:maj
8G#	it	.	.	.	.	.	.
8r	.	.	.	.	.	.	.
8B	To	.	.	.	.	.	.
8A	do	2AM	.	voice	.	46.277	A:maj
4A	it	.	.	.	.	.	.
8E	right	.	.	.	.	.	.
=30	=30	=30	=30	=30	=30	=30	=30
4r	.	1EM	.	voice	.	47.083	E:maj
2E	child	.	.	.	.	.	.
4r	.	.	.	.	.	.	.
=31	=31	=31	=31	=31	=31	=31	=31
4r	.	1EM	.	voice	.	48.694	E:maj
8B	I	.	.	.	.	.	.
4c#	got	.	.	.	.	.	.
8e	my	.	.	.	.	.	.
4e	mind	.	.	.	.	.	.
=32	=32	=32	=32	=32	=32	=32	=32
*>Letter>A	*>Letter>A	*>Letter>A	*>Letter>A	*>Letter>A	*>Letter>A	*>Letter>A	*>Letter>A
*>Label>Chorus	*>Label>Chorus	*>Label>Chorus	*>Label>Chorus	*>Label>Chorus	*>Label>Chorus	*>Label>Chorus	*>Label>Chorus
2e	set	2C#m	newline	voice	.	50.305	C#:min
4f#	on	2G#M	.	voice	.	51.107	G#:maj
8e	_	.	.	.	.	.	.
8e	you	.	.	.	.	.	.
=33	=33	=33	=33	=33	=33	=33	=33
4r	.	1C#m	.	voice	.	51.908	C#:min
8E	I	.	.	.	.	.	.
4E	got	.	.	.	.	.	.
8E	my	.	.	.	.	.	.
4F#	mind	.	.	.	.	.	.
=34	=34	=34	=34	=34	=34	=34	=34
[4G#	set	2EM	.	voice	.	53.51	E:maj
12G#]	_	.	.	.	.	.	.
12F#	_	.	.	.	.	.	.
12G#	_	.	.	.	.	.	.
4.F#	on	2BM	.	voice	.	54.311	B:maj
8E	you	.	.	.	.	.	.
=35	=35	=35	=35	=35	=35	=35	=35
4r	.	1EM	.	voice	.	55.113	E:maj
8c#	I	.	.	.	.	.	.
4e	got	.	.	.	.	.	.
8c#	my	.	.	.	.	.	.
4e	mind	.	.	.	.	.	.
=36	=36	=36	=36	=36	=36	=36	=36
4.e	set	2C#m	newline	voice	.	56.715	C#:min
8g	on	.	.	.	.	.	.
8f#	_	2G#M	.	voice	.	57.519	G#:maj
4e	_	.	.	.	.	.	.
8e	you	.	.	.	.	.	.
=37	=37	=37	=37	=37	=37	=37	=37
4r	.	1C#m	.	voice	.	58.322	C#:min
8G#	I	.	.	.	.	.	.
4F#	Got	.	.	.	.	.	.
8E	my	.	.	.	.	.	.
4F#	mind	.	.	.	.	.	.
=38	=38	=38	=38	=38	=38	=38	=38
4.G#	set	2EM	.	voice	.	59.929	E:maj
8F#	_	.	.	.	.	.	.
4.F#	on	2BM	.	voice	.	60.732	B:maj
8E	you	.	.	.	.	.	.
=39	=39	=39	=39	=39	=39	=39	=39
2r	.	1EM	.	voice	.	61.536	E:maj
4.r	.	.	.	.	.	.	.
8E	And	.	.	.	.	.	.
=40	=40	=40	=40	=40	=40	=40	=40
*>Letter>C	*>Letter>C	*>Letter>C	*>Letter>C	*>Letter>C	*>Letter>C	*>Letter>C	*>Letter>C
*>Label>Bridge	*>Label>Bridge	*>Label>Bridge	*>Label>Bridge	*>Label>Bridge	*>Label>Bridge	*>Label>Bridge	*>Label>Bridge
4G#	this	1EM	newline	voice	.	63.143	E:maj
8G#	time	.	.	.	.	.	.
8F#	I	.	.	.	.	.	.
8G#	know	.	.	.	.	.	.
4G#	it's	.	.	.	.	.	.
[8A	real	.	.	.	C	.	.
=41	=41	=41	=41	=41	=41	=41	=41
4A]	_	1AM	.	voice	.	64.752	A:maj
4r	.	.	.	.	.	.	.
4.r	.	.	.	.	.	.	.
8E	The	.	.	.	.	.	.
=42	=42	=42	=42	=42	=42d	=42	=42
4G#	feel-	1EM	.	voice	C	66.361	E:maj
4G#	-ing	.	.	.	.	.	.
8G#	that	.	.	.	.	.	.
4G#	I	.	.	.	.	.	.
[8A	feel	.	.	.	C	.	.
=43	=43	=43	=43	=43	=43	=43	=43
4A]	_	1AM	.	voice	.	67.969	A:maj
4r	.	.	.	.	.	.	.
4.r	.	.	.	.	.	.	.
8E	I	.	.	.	.	.	.
=44	=44	=44	=44	=44	=44	=44	=44
4G#	know	1EM	newline	voice	.	69.578	E:maj
8G#	if	.	.	.	.	.	.
8F#	I	.	.	.	.	.	.
8G#	put	.	.	.	.	.	.
8F#	my	.	.	.	.	.	.
4G#	mind	.	.	.	.	.	.
=45	=45	=45	=45	=45	=45	=45	=45
4A	to	1AM	.	voice	D	71.183	A:maj
8E	it	.	.	.	.	.	.
8r	.	.	.	.	.	.	.
4.r	.	.	.	.	.	.	.
8G#	I	.	.	.	.	.	.
=46	=46	=46	=46	=46	=46	=46	=46
4G#	know	1EM	.	voice	.	72.788	E:maj
8G#	that	.	.	.	.	.	.
8G#	I	.	.	.	.	.	.
8G#	real-	.	.	.	.	.	.
8G#	-ly	.	.	.	.	.	.
8G#	could	.	.	.	.	.	.
[8c#	do	.	.	.	D	.	.
=47	=47	=47	=47	=47	=47	=47	=47
8c#]	_	1BM	.	voice	.	74.393	B:maj
16d#	_	.	.	.	.	.	.
16c#	_	.	.	.	.	.	.
8B	_	.	.	.	.	.	.
4.B	it	.	.	.	.	.	.
4r	.	.	.	.	.	.	.
=48	=48	=48	=48	=48	=48	=48	=48
4r	.	1BM	.	voice	.	75.998	B:maj
8B	I	.	.	.	.	.	.
4c#	got	.	.	.	.	.	.
8e	my	.	.	.	.	.	.
4e	mind	.	.	.	.	.	.
=49	=49	=49	=49	=49	=49	=49	=49
*>Letter>A	*>Letter>A	*>Letter>A	*>Letter>A	*>Letter>A	*>Letter>A	*>Letter>A	*>Letter>A
*>Label>Chorus	*>Label>Chorus	*>Label>Chorus	*>Label>Chorus	*>Label>Chorus	*>Label>Chorus	*>Label>Chorus	*>Label>Chorus
2e	set	2C#m	newline	voice	.	77.603	C#:min
8f#	on	2G#M	.	voice	.	78.415	G#:maj
4e	_	.	.	.	.	.	.
8e	you	.	.	.	D	.	.
=50	=50	=50	=50	=50	=50	=50	=50
1r	.	1C#m	.	voice	.	79.227	C#:min
=51	=51	=51	=51	=51	=51	=51	=51
2g#	set	2EM	.	voice	.	80.85	E:maj
4.f#	on	2BM	.	voice	.	81.661	B:maj
8e	you	.	.	.	.	.	.
=52	=52	=52	=52	=52	=52	=52	=52
4r	.	1EM	.	voice	.	82.473	E:maj
8c#	I	.	.	.	.	.	.
4e	got	.	.	.	.	.	.
8c#	my	.	.	.	.	.	.
4e	mind	.	.	.	.	.	.
=53	=53	=53	=53	=53	=53	=53	=53
4.e	set	2C#m	newline	voice	.	84.096	C#:min
8g	on	.	.	.	.	.	.
8f#	_	2G#M	.	voice	.	84.899	G#:maj
4e	_	.	.	.	.	.	.
8e	you	.	.	.	.	.	.
=54	=54	=54	=54	=54	=54	=54	=54
1r	.	1C#m	.	voice	.	85.701	C#:min
=55	=55	=55	=55	=55	=55	=55	=55
2g#	set	2EM	.	voice	.	87.306	E:maj
4.f#	on	2BM	.	voice	.	88.109	B:maj
8e	you	.	.	.	.	.	.
=56	=56	=56	=56	=56	=56	=56	=56
8r	.	2EM	.	voice	.	88.911	E:maj
8c#	But	.	.	.	.	.	.
8B	it's	.	.	.	.	.	.
8c#	gon-	.	.	.	.	.	.
8B	-na	2BM	.	voice	.	89.714	B:maj
8c#	take	.	.	.	.	.	.
8B	uh	.	.	.	.	.	.
8c#	mo-	.	.	.	.	.	.
=57	=57	=57	=57	=57	=57	=57	=57
*>Letter>B	*>Letter>B	*>Letter>B	*>Letter>B	*>Letter>B	*>Letter>B	*>Letter>B	*>Letter>B
*>Label>Verse	*>Label>Verse	*>Label>Verse	*>Label>Verse	*>Label>Verse	*>Label>Verse	*>Label>Verse	*>Label>Verse
4e	-ney	2EM	newline	voice	.	90.516	E:maj
4r	.	.	.	.	.	.	.
2r	.	2AM	.	voice	.	91.32	A:maj
=58	=58	=58	=58	=58	=58	=58	=58
2r	.	1BM	.	voice	.	92.123	B:maj
4g#	whole	.	.	.	.	.	.
8f#	lot	.	.	.	.	.	.
8f#	of	.	.	.	.	.	.
=59	=59	=59	=59	=59	=59	=59	=59
8e	spend-	2EM	.	voice	(A	93.73	E:maj
4e	-ing	.	.	.	a)	.	.
8c#	mon-	.	.	.	.	.	.
8B	-ey	2AM	.	voice	.	94.534	A:maj
8c#	_	.	.	.	.	.	.
8B	_	.	.	.	.	.	.
8r	.	.	.	.	.	.	.
=60	=60	=60	=60	=60	=60	=60	=60
4r	.	1BM	.	voice	.	95.337	B:maj
8r	.	.	.	.	.	.	.
8B	It's	.	.	.	.	.	.
8B	gon-	.	.	.	.	.	.
8B	-na	.	.	.	.	.	.
8c#	take	.	.	.	.	.	.
8r	.	.	.	.	.	.	.
=61	=61	=61	=61	=61	=61	=61	=61
12G#	plen-	2EM	newline	voice	(A	96.944	E:maj
12E	-ty	.	.	.	a)	.	.
12E	a	.	.	.	.	.	.
8E	mon-	.	.	.	.	.	.
8E	-ey	.	.	.	.	.	.
2r	.	2AM	.	voice	.	97.75	A:maj
=62	=62	=62	=62	=62	=62	=62	=62
4.r	.	1BM	.	voice	.	98.556	B:maj
8B	to	.	.	.	.	.	.
8A	do	.	.	.	.	.	.
4B	it	.	.	.	.	.	.
[8G#	right	.	.	.	.	.	.
=63	=63	=63	=63	=63	=63	=63	=63
8G#]	_	2EM	.	voice	.	100.169	E:maj
4E	child	.	.	.	.	.	.
8F#	_	.	.	.	.	.	.
2r	.	2AM	.	voice	.	100.975	A:maj
=64	=64	=64	=64	=64	=64	=64	=64
4r	.	1BM	.	voice	.	101.781	B:maj
8r	.	.	.	.	.	.	.
8B	It's	.	.	.	.	.	.
8B	gon-	.	.	.	.	.	.
8B	-na	.	.	.	.	.	.
4c#	take	.	.	.	.	.	.
=65	=65	=65	=65	=65	=65	=65	=65
[2e	time	2EM	newline	voice	.	103.394	E:maj
4.e]	_	2AM	.	voice	.	104.195	A:maj
8f#	_	.	.	.	.	.	.
=66	=66	=66	=66	=66	=66	=66	=66
2r	.	1BM	.	voice	.	104.996	B:maj
4g#	whole	.	.	.	.	.	.
8f#	lot	.	.	.	.	.	.
8f#	of	.	.	.	.	.	.
=67	=67	=67	=67	=67	=67	=67	=67
8e	pre-	2EM	.	voice	(B	106.598	E:maj
4FF#	-cious	.	.	.	b)	.	.
8c#	time	.	.	.	.	.	.
8c#	_	2AM	.	voice	.	107.398	A:maj
8B	_	.	.	.	.	.	.
4r	.	.	.	.	.	.	.
=68	=68	=68	=68	=68	=68	=68	=68
4r	.	1BM	.	voice	.	108.199	B:maj
8r	.	.	.	.	.	.	.
8B	It's	.	.	.	.	.	.
8c#	gon-	.	.	.	.	.	.
8B	-na	.	.	.	.	.	.
8c#	take	.	.	.	.	.	.
8r	.	.	.	.	.	.	.
=69	=69	=69	=69	=69	=69	=69	=69
8G#	pat-	2EM	newline	voice	(B	109.801	E:maj
8E	-tience	.	.	.	b)	.	.
8E	and	.	.	.	.	.	.
4E	time	.	.	.	.	.	.
.	.	2AM	.	voice	.	110.616	A:maj
4F#	_	.	.	.	.	.	.
8r	.	.	.	.	.	.	.
=70	=70	=70	=70	=70	=70	=70	=70
4r	.	1BM	.	voice	.	111.431	B:maj
8B	Mmm	.	.	.	.	.	.
4.A	_	.	.	.	.	.	.
8r	.	.	.	.	.	.	.
8B	To	.	.	.	.	.	.
=71	=71	=71	=71	=71	=71	=71	=71
8G#	do	2EM	newline	voice	.	113.06	E:maj
8G#	it	.	.	.	.	.	.
8r	.	.	.	.	.	.	.
8B	To	.	.	.	.	.	.
8A	do	2AM	.	voice	.	113.863	A:maj
8A	it	.	.	.	.	.	.
8r	.	.	.	.	.	.	.
8B	To	.	.	.	.	.	.
=72	=72	=72	=72	=72	=72	=72	=72
8G#	do	2EM	.	voice	.	114.666	E:maj
8G#	it	.	.	.	.	.	.
8r	.	.	.	.	.	.	.
8B	To	.	.	.	.	.	.
8A	do	2AM	.	voice	.	115.469	A:maj
8A	it	.	.	.	.	.	.
8r	.	.	.	.	.	.	.
8B	To	.	.	.	.	.	.
=73	=73	=73	=73	=73	=73	=73	=73
8G#	do	2EM	.	voice	.	116.272	E:maj
8G#	it	.	.	.	.	.	.
8r	.	.	.	.	.	.	.
8B	To	.	.	.	.	.	.
8c#	do	2AM	.	voice	.	117.075	A:maj
4e	it	.	.	.	.	.	.
8e	right	.	.	.	.	.	.
=74	=74	=74	=74	=74	=74	=74	=74
4e	_	1EM	.	voice	.	117.878	E:maj
2r	.	.	.	.	.	.	.
4r	.	.	.	.	.	.	.
=75	=75	=75	=75	=75	=75	=75	=75
1r	.	1EM	.	voice	.	119.483	E:maj
=76	=76	=76	=76	=76	=76	=76	=76
*>Letter>A	*>Letter>A	*>Letter>A	*>Letter>A	*>Letter>A	*>Letter>A	*>Letter>A	*>Letter>A
*>Label>Instrumental	*>Label>Instrumental	*>Label>Instrumental	*>Label>Instrumental	*>Label>Instrumental	*>Label>Instrumental	*>Label>Instrumental	*>Label>Instrumental
1r	.	2C#m	newline	voice	.	121.089	C#:min
.	.	2G#M	.	voice	.	121.891	G#:maj
=77	=77	=77	=77	=77	=77	=77	=77
1r	.	1C#m	.	voice	.	122.692	C#:min
=78	=78	=78	=78	=78	=78	=78	=78
1r	.	2EM	.	voice	.	124.295	E:maj
.	.	2BM	.	voice	.	125.096	B:maj
=79	=79	=79	=79	=79	=79	=79	=79
1r	.	1EM	.	voice	.	125.898	E:maj
=80	=80	=80	=80	=80	=80	=80	=80
1r	.	2C#m	newline	voice	.	127.501	C#:min
.	.	2G#M	.	voice	.	128.304	G#:maj
=81	=81	=81	=81	=81	=81	=81	=81
1r	.	1C#m	.	voice	.	129.107	C#:min
=82	=82	=82	=82	=82	=82	=82	=82
1r	.	2EM	.	voice	.	130.712	E:maj
.	.	2BM	.	voice	.	131.515	B:maj
=83	=83	=83	=83	=83	=83	=83	=83
4r	.	1EM	.	voice	.	132.318	E:maj
8c#	I	.	.	.	.	.	.
4e	got	.	.	.	.	.	.
8c#	my	.	.	.	.	.	.
4e	mind	.	.	.	.	.	.
=84	=84	=84	=84	=84	=84	=84	=84
*>Letter>A	*>Letter>A	*>Letter>A	*>Letter>A	*>Letter>A	*>Letter>A	*>Letter>A	*>Letter>A
*>Label>Chorus	*>Label>Chorus	*>Label>Chorus	*>Label>Chorus	*>Label>Chorus	*>Label>Chorus	*>Label>Chorus	*>Label>Chorus
4.e	set	2C#m	newline	voice	.	133.924	C#:min
4f#	on	.	.	.	.	.	.
.	.	2G#M	.	voice	.	134.73	G#:maj
4e	_	.	.	.	.	.	.
8e	you	.	.	.	.	.	.
=85	=85	=85	=85	=85	=85	=85	=85
4r	.	1C#m	.	voice	.	135.536	C#:min
8G#	I	.	.	.	.	.	.
4F#	got	.	.	.	.	.	.
8E	my	.	.	.	.	.	.
4F#	mind	.	.	.	.	.	.
=86	=86	=86	=86	=86	=86	=86	=86
4G#	set	2EM	.	voice	.	137.148	E:maj
4r	.	.	.	.	.	.	.
4.F#	on	2BM	.	voice	.	137.954	B:maj
8E	you	.	.	.	.	.	.
=87	=87	=87	=87	=87	=87	=87	=87
4r	.	1EM	.	voice	.	138.76	E:maj
8c#	I	.	.	.	.	.	.
4e	got	.	.	.	.	.	.
8c#	my	.	.	.	.	.	.
4e	mind	.	.	.	.	.	.
=88	=88	=88	=88	=88	=88	=88	=88
2e	set	2C#m	newline	voice	.	140.372	C#:min
8f#	on	2G#M	.	voice	.	141.182	G#:maj
4e	_	.	.	.	.	.	.
8e	you	.	.	.	.	.	.
=89	=89	=89	=89	=89	=89	=89	=89
4r	.	1C#m	.	voice	.	141.991	C#:min
8G#	I	.	.	.	.	.	.
4F#	got	.	.	.	.	.	.
8E	my	.	.	.	.	.	.
4F#	mind	.	.	.	.	.	.
=90	=90	=90	=90	=90	=90	=90	=90
4.G#	set	2EM	.	voice	.	143.61	E:maj
8F#	_	.	.	.	.	.	.
4.F#	on	2BM	.	voice	.	144.419	B:maj
8E	you	.	.	.	.	.	.
=91	=91	=91	=91	=91	=91	=91	=91
2r	.	1EM	.	voice	.	145.229	E:maj
4.r	.	.	.	.	.	.	.
8E	And	.	.	.	.	.	.
=92	=92	=92	=92	=92	=92	=92	=92
*>Letter>C	*>Letter>C	*>Letter>C	*>Letter>C	*>Letter>C	*>Letter>C	*>Letter>C	*>Letter>C
*>Label>Bridge	*>Label>Bridge	*>Label>Bridge	*>Label>Bridge	*>Label>Bridge	*>Label>Bridge	*>Label>Bridge	*>Label>Bridge
4G#	this	1EM	newline	voice	.	146.848	E:maj
8G#	time	.	.	.	.	.	.
8F#	I	.	.	.	.	.	.
8G#	know	.	.	.	.	.	.
4G#	it's	.	.	.	.	.	.
[8A	real	.	.	.	C	.	.
=93	=93	=93	=93	=93	=93	=93	=93
4A]	_	1AM	.	voice	.	148.45	A:maj
4r	.	.	.	.	.	.	.
4.r	.	.	.	.	.	.	.
8E	The	.	.	.	.	.	.
=94	=94	=94	=94	=94	=94	=94	=94
4G#	feel-	1EM	.	voice	C	150.052	E:maj
4G#	-ing	.	.	.	.	.	.
8G#	that	.	.	.	.	.	.
4G#	I	.	.	.	.	.	.
[8A	feel	.	.	.	C	.	.
=95	=95	=95	=95	=95	=95	=95	=95
4A]	_	1AM	.	voice	.	151.654	A:maj
4r	.	.	.	.	.	.	.
4.r	.	.	.	.	.	.	.
8E	I	.	.	.	.	.	.
=96	=96	=96	=96	=96	=96	=96	=96
4G#	know	1EM	newline	voice	.	153.256	E:maj
8G#	if	.	.	.	.	.	.
8F#	I	.	.	.	.	.	.
8G#	put	.	.	.	.	.	.
8F#	my	.	.	.	.	.	.
4G#	mind	.	.	.	.	.	.
=97	=97	=97	=97	=97	=97	=97	=97
4A	to	1AM	.	voice	D	154.867	A:maj
8E	it	.	.	.	.	.	.
8r	.	.	.	.	.	.	.
4.r	.	.	.	.	.	.	.
8G#	I	.	.	.	.	.	.
=98	=98	=98	=98	=98	=98	=98	=98
4G#	know	1EM	.	voice	.	156.478	E:maj
8G#	that	.	.	.	.	.	.
8G#	I	.	.	.	.	.	.
8G#	real-	.	.	.	.	.	.
8G#	-ly	.	.	.	.	.	.
8G#	could	.	.	.	.	.	.
[8c#	do	.	.	.	D	.	.
=99	=99	=99	=99	=99	=99	=99	=99
8c#]	_	1BM	.	voice	.	158.089	B:maj
16d#	_	.	.	.	.	.	.
16c#	_	.	.	.	.	.	.
8B	_	.	.	.	.	.	.
4B	it	.	.	.	.	.	.
8c#	_	.	.	.	.	.	.
4r	.	.	.	.	.	.	.
=100	=100	=100	=100	=100	=100	=100	=100
8r	.	1BM	.	voice	.	159.7	B:maj
8c#	But	.	.	.	.	.	.
8B	it's	.	.	.	.	.	.
8c#	gon-	.	.	.	.	.	.
8B	-na	.	.	.	.	.	.
8c#	take	.	.	.	.	.	.
8B	uh	.	.	.	.	.	.
8c#	mo-	.	.	.	.	.	.
=101	=101	=101	=101	=101	=101	=101	=101
*>Letter>B	*>Letter>B	*>Letter>B	*>Letter>B	*>Letter>B	*>Letter>B	*>Letter>B	*>Letter>B
*>Label>Verse	*>Label>Verse	*>Label>Verse	*>Label>Verse	*>Label>Verse	*>Label>Verse	*>Label>Verse	*>Label>Verse
[2e	-ney	2EM	newline	voice	.	161.312	E:maj
4.e]	_	2AM	.	voice	.	162.117	A:maj
8f#	_	.	.	.	.	.	.
=102	=102	=102	=102	=102	=102	=102	=102
4.r	.	1BM	.	voice	.	162.922	B:maj
8B	A	.	.	.	.	.	.
4g#	whole	.	.	.	.	.	.
8f#	lot	.	.	.	.	.	.
8f#	of	.	.	.	.	.	.
=103	=103	=103	=103	=103	=103	=103	=103
8e	spend-	2EM	.	voice	(A	164.533	E:maj
4e	-ing	.	.	.	a)	.	.
8c#	mon-	.	.	.	.	.	.
8B	-ey	2AM	.	voice	.	165.338	A:maj
8c#	_	.	.	.	.	.	.
8B	_	.	.	.	.	.	.
8r	.	.	.	.	.	.	.
=104	=104	=104	=104	=104	=104	=104	=104
4r	.	1BM	.	voice	.	166.143	B:maj
8r	.	.	.	.	.	.	.
8B	It's	.	.	.	.	.	.
8c#	gon-	.	.	.	.	.	.
8B	-na	.	.	.	.	.	.
8c#	take	.	.	.	.	.	.
8r	.	.	.	.	.	.	.
=105	=105	=105	=105	=105	=105	=105	=105
12G#	plen-	2EM	newline	voice	(A	167.754	E:maj
12E	-ty	.	.	.	a)	.	.
12E	a	.	.	.	.	.	.
8E	mon-	.	.	.	.	.	.
8E	-ey	.	.	.	.	.	.
4F#	_	2AM	.	voice	.	168.559	A:maj
4r	.	.	.	.	.	.	.
=106	=106	=106	=106	=106	=106	=106	=106
4.r	.	1BM	.	voice	.	169.365	B:maj
8B	to	.	.	.	.	.	.
8A	do	.	.	.	.	.	.
4B	it	.	.	.	.	.	.
[8G#	right	.	.	.	.	.	.
=107	=107	=107	=107	=107	=107	=107	=107
8G#]	_	2EM	.	voice	.	170.976	E:maj
4.E	child	.	.	.	.	.	.
2r	.	2AM	.	voice	.	171.782	A:maj
=108	=108	=108	=108	=108	=108	=108	=108
4r	.	1BM	.	voice	.	172.588	B:maj
8r	.	.	.	.	.	.	.
8B	It's	.	.	.	.	.	.
8B	gon-	.	.	.	.	.	.
8B	-na	.	.	.	.	.	.
8c#	take	.	.	.	.	.	.
8B	a	.	.	.	.	.	.
=109	=109	=109	=109	=109	=109	=109	=109
[2e	time	2EM	newline	voice	.	174.199	E:maj
4.e]	_	2AM	.	voice	.	175.002	A:maj
8f#	_	.	.	.	.	.	.
=110	=110	=110	=110	=110	=110	=110	=110
4.r	.	1BM	.	voice	.	175.805	B:maj
8B	A	.	.	.	.	.	.
4g#	whole	.	.	.	.	.	.
8f#	lot	.	.	.	.	.	.
8f#	of	.	.	.	.	.	.
=111	=111	=111	=111	=111	=111	=111	=111
8e	pre-	2EM	.	voice	(B	177.411	E:maj
4e	-cious	.	.	.	b)	.	.
8c#	time	.	.	.	.	.	.
8c#	_	2AM	.	voice	.	178.214	A:maj
8B	_	.	.	.	.	.	.
4r	.	.	.	.	.	.	.
=112	=112	=112	=112	=112	=112	=112	=112
4r	.	1BM	.	voice	.	179.017	B:maj
8r	.	.	.	.	.	.	.
8B	It's	.	.	.	.	.	.
8c#	gon-	.	.	.	.	.	.
8B	-na	.	.	.	.	.	.
8B	take	.	.	.	.	.	.
8r	.	.	.	.	.	.	.
=113	=113	=113	=113	=113	=113	=113	=113
6G#	pa-	2EM	newline	voice	(B	180.623	E:maj
6E	-tience	.	.	.	b)	.	.
6E	and	.	.	.	.	.	.
4E	time	2AM	.	voice	.	181.425	A:maj
4r	.	.	.	.	.	.	.
=114	=114	=114	=114	=114	=114	=114	=114
4r	.	1BM	.	voice	.	182.227	B:maj
8B	Mmm	.	.	.	.	.	.
4.A	_	.	.	.	.	.	.
8r	.	.	.	.	.	.	.
8B	To	.	.	.	.	.	.
=115	=115	=115	=115	=115	=115	=115	=115
8G#	do	2EM	newline	voice	.	183.831	E:maj
8G#	it	.	.	.	.	.	.
8r	.	.	.	.	.	.	.
8B	To	.	.	.	.	.	.
8A	do	2AM	.	voice	.	184.636	A:maj
8A	it	.	.	.	.	.	.
8r	.	.	.	.	.	.	.
8B	To	.	.	.	.	.	.
=116	=116	=116	=116	=116	=116	=116	=116
8G#	do	2EM	.	voice	.	185.441	E:maj
8G#	it	.	.	.	.	.	.
8r	.	.	.	.	.	.	.
8B	To	.	.	.	.	.	.
8A	do	2AM	.	voice	.	186.246	A:maj
8A	it	.	.	.	.	.	.
8r	.	.	.	.	.	.	.
8B	To	.	.	.	.	.	.
=117	=117	=117	=117	=117	=117	=117	=117
8G#	do	2EM	.	voice	.	187.051	E:maj
8G#	it	.	.	.	.	.	.
8r	.	.	.	.	.	.	.
8B	To	.	.	.	.	.	.
8c#	do	2AM	.	voice	.	187.857	A:maj
4e	it	.	.	.	.	.	.
8e	right	.	.	.	.	.	.
=118	=118	=118	=118	=118	=118	=118	=118
4e	_	1EM	.	voice	.	188.662	E:maj
2r	.	.	.	.	.	.	.
4r	.	.	.	.	.	.	.
=119	=119	=119	=119	=119	=119	=119	=119
1r	.	1EM	.	voice	.	190.272	E:maj
=120	=120	=120	=120	=120	=120	=120	=120
*>Letter>A	*>Letter>A	*>Letter>A	*>Letter>A	*>Letter>A	*>Letter>A	*>Letter>A	*>Letter>A
*>Label>Chorus	*>Label>Chorus	*>Label>Chorus	*>Label>Chorus	*>Label>Chorus	*>Label>Chorus	*>Label>Chorus	*>Label>Chorus
2c#	Set	2C#m	newline	voice	.	191.882	C#:min
4.B#	on	2G#M	.	voice	.	192.688	G#:maj
8c#	you	.	.	.	.	.	.
=121	=121	=121	=121	=121	=121	=121	=121
1r	.	1C#m	.	voice	.	193.494	C#:min
=122	=122	=122	=122	=122	=122	=122	=122
2g#	set	2EM	.	voice	.	195.107	E:maj
4.f#	on	2BM	.	voice	.	195.913	B:maj
8e	you	.	.	.	.	.	.
=123	=123	=123	=123	=123	=123	=123	=123
1r	.	1EM	.	voice	.	196.719	E:maj
=124	=124	=124	=124	=124	=124	=124	=124
*>Letter>A	*>Letter>A	*>Letter>A	*>Letter>A	*>Letter>A	*>Letter>A	*>Letter>A	*>Letter>A
*>Label>Instrumental	*>Label>Instrumental	*>Label>Instrumental	*>Label>Instrumental	*>Label>Instrumental	*>Label>Instrumental	*>Label>Instrumental	*>Label>Instrumental
1r	.	2C#m	newline	voice	.	198.331	C#:min
.	.	2G#M	.	voice	.	199.136	G#:maj
=125	=125	=125	=125	=125	=125	=125	=125
1r	.	1C#m	.	voice	.	199.94	C#:min
=126	=126	=126	=126	=126	=126	=126	=126
1r	.	2EM	.	voice	.	201.549	E:maj
.	.	2BM	.	voice	.	202.354	B:maj
=127	=127	=127	=127	=127	=127	=127	=127
1r	.	1EM	.	voice	.	203.159	E:maj
=128	=128	=128	=128	=128	=128	=128	=128
*>Letter>A	*>Letter>A	*>Letter>A	*>Letter>A	*>Letter>A	*>Letter>A	*>Letter>A	*>Letter>A
*>Label>Outro	*>Label>Outro	*>Label>Outro	*>Label>Outro	*>Label>Outro	*>Label>Outro	*>Label>Outro	*>Label>Outro
2c#	Set	2C#m	newline	voice	.	204.768	C#:min
4.B#	on	2G#M	.	voice	.	205.576	G#:maj
8c#	you	.	.	.	.	.	.
=129	=129	=129	=129	=129	=129	=129	=129
1r	.	1C#m	.	voice	.	206.383	C#:min
=130	=130	=130	=130	=130	=130	=130	=130
2g#	set	2EM	.	voice	.	207.998	E:maj
4.f#	on	2BM	.	voice	.	208.806	B:maj
8e	you	.	.	.	.	.	.
=131	=131	=131	=131	=131	=131	=131	=131
1r	.	1EM	.	voice	.	209.613	E:maj
=132	=132	=132	=132	=132	=132	=132	=132
2c#	Set	2C#m	newline	voice	.	211.228	C#:min
4.B#	on	2G#M	.	voice	.	212.033	G#:maj
8c#	you	.	.	.	.	.	.
=133	=133	=133	=133	=133	=133	=133	=133
1r	.	1C#m	.	voice	.	212.837	C#:min
=134	=134	=134	=134	=134	=134	=134	=134
2g#	set	2EM	.	voice	.	214.445	E:maj
4.f#	on	2BM	.	voice	.	215.249	B:maj
8e	you	.	.	.	.	.	.
=135	=135	=135	=135	=135	=135	=135	=135
1r	.	1EM	.	voice	.	216.053	E:maj
=136	=136	=136	=136	=136	=136	=136	=136
*>Label>>Fadeout	*>Label>>Fadeout	*>Label>>Fadeout	*>Label>>Fadeout	*>Label>>Fadeout	*>Label>>Fadeout	*>Label>>Fadeout	*>Label>>Fadeout
4.e	set	2C#m	newline	voice	.	217.662	C#:min
8g	on	.	.	.	.	.	.
8f#	_	2G#M	.	voice	.	218.465	G#:maj
4e	_	.	.	.	.	.	.
8e	you	.	.	.	.	.	.
=137	=137	=137	=137	=137	=137	=137	=137
1r	.	1C#m	.	voice	.	219.268	C#:min
=138	=138	=138	=138	=138	=138	=138	=138
4g#	Set	2EM	.	voice	.	220.874	E:maj
8f#	_	.	.	.	.	.	.
8e	_	.	.	.	.	.	.
4e	on	2BM	.	voice	.	221.677	B:maj
8c#	you	.	.	.	.	.	.
8B	_	.	.	.	.	.	.
=139	=139	=139	=139	=139	=139	=139	=139
2r	.	1EM	.	voice	.	222.48	E:maj
4.r	.	.	.	.	.	.	.
8B	I	.	.	.	.	.	.
=140	=140	=140	=140	=140	=140	=140	=140
8e	set	2C#m	newline	voice	.	224.086	C#:min
8e	my	.	.	.	.	.	.
4g	mind	.	.	.	.	.	.
8e	_	2G#M	.	voice	.	224.794	G#:maj
4e	on	.	.	.	.	.	.
8e	you	.	.	.	.	.	.
=141	=141	=141	=141	=141	=141	=141	=141
2r	.	1C#m	.	voice	.	225.501	C#:min
8r	.	.	.	.	.	.	.
8e	It	.	.	.	.	.	.
4e	got	.	.	.	.	.	.
=142	=142	=142	=142	=142	=142	=142	=142
4g#	Set	2EM	.	voice	.	226.916	E:maj
8f#	_	.	.	.	.	.	.
8e	_	.	.	.	.	.	.
4.f#	on	2BM	.	voice	.	227.624	B:maj
8e	you	.	.	.	.	.	.
=143	=143	=143	=143	=143	=143	=143	=143
1r	.	1EM	.	voice	.	228.332	E:maj
r;	.	1r;	.	r	.	229.747	N.C.
r;	.	1r;	.	r	.	234.684	N.C.
*-	*-	*-	*-	*-	*-	*-	*-
!!!BillboardChartDate: 1988/01/23
!!!BillboardPeak: 1
!!!BillboardWeeksOnChart: 22
!!!COC: George Harrison
!!!ENC: Nathaniel Condit-Schultz
!!!EST: Awating manual error checking and editing.
!!!OTL: Got My Mind Set On You
!!!RDF**chordsym: original McGill chord annotation + (implied pitch class set, with bass pitch in first position)
!!!RDF**harmony: **recip + pitch class of root + harmonic quality
!!!RDF**leadinstrument: original McGill primary instrumentation annotation
!!!RDF**phrase: newline = linebreak in original McGill transcription
!!!RDF**timestamp: McGill audio timestamp in seconds
!!!RDT: 2017/01/12/
!!!SampleActualRank: 4
!!!SampleID#: 0845
!!!SampleTargetRank: 3
